X:151
T:Lord Mounteagle's
B:Terry "Cuz" Teahan "Sliabh Luachra on Parade" 1980
Z:Patrick Cavanagh
M:4/4
L:1/8
R:Hornpipe
K:D
ag | fAfe d2A2 | BGdB A2de | fdda gfed | f2e2 e2ag | 
fAfe d2A2 | BGdB A2de | faga gecA | d4 d2 :| 
fg | adfa f2ed | BGdB A2fg | adfa gfed | f2e2 e2fg | 
adfa f2ed | BGdB A2de | faga gecA | d4 d2 :| 
A/B/c | d2e2 f2ed | BGdB A2de | fAAa gfed | f2e2 e2A/B/c | 
d2e2 f2ed | BGdB A2de | faga gecA | d4 d2 :|| 

